brandFactory_export/3.Masa/Documento_Archivo Sketch_3Masa.svg

<?xml version="1.0" encoding="UTF-8"?>
<svg width="24px" height="24px" viewBox="0 0 24 24" version="1.1" xmlns="http://www.w3.org/2000/svg" xmlns:xlink="http://www.w3.org/1999/xlink">
    <title>3.Masa/Documento_Archivo Sketch_3Masa</title>
    <g id="Symbols" stroke="none" stroke-width="1" fill="none" fill-rule="evenodd">
        <g id="3.Masa/Documento_Archivo-Sketch_3Masa" fill="#5CB615" fill-rule="nonzero">
            <path d="M18.707563,6.78319328 L13.8436975,2.00336134 L13.8436975,4.1210084 C13.8436975,4.91092437 14.0991597,5.57647059 14.5798319,6.05042017 C15.0672269,6.52773109 15.7563025,6.78319328 16.5764706,6.78319328 L18.707563,6.78319328 Z M20.6907563,6.91092437 C20.7277311,6.99831933 20.7445378,7.09579832 20.7445378,7.19663866 L20.7445378,21.9630252 C20.7445378,22.8638655 19.9815126,23.6235294 19.0806723,23.6235294 L4.68739496,23.6235294 C3.80336134,23.6235294 3.02352941,22.8470588 3.02352941,21.9630252 L3.02352941,1.6605042 C3.02352941,0.789915966 3.81680672,0 4.68739496,0 L13.4470588,0 C13.7226891,0 13.9781513,0.104201681 14.1731092,0.299159664 L20.4285714,6.45042017 C20.5663866,6.58151261 20.6403361,6.74285714 20.6907563,6.91092437 Z M15.2319328,12.8638655 L15.6386555,11.6806723 L16.2369748,12.8638655 L15.2319328,12.8638655 L15.2319328,12.8638655 Z M14.8352941,14.0302521 L16.0521008,14.0302521 L13.7226891,17.287395 L14.8352941,14.0302521 L14.8352941,14.0302521 Z M8.98991597,14.0302521 L10.1193277,17.3378151 L7.72941176,14.0302521 L8.98991597,14.0302521 Z M9.59831933,12.2621849 L9.09411765,10.7865546 L10.7512605,10.7865546 L9.59831933,12.2621849 Z M14.2235294,12.2655462 L13.0504202,10.7865546 L14.7310924,10.7865546 L14.2235294,12.2655462 Z M10.5932773,12.8638655 L11.9008403,11.1966387 L13.2218487,12.8638655 L10.5932773,12.8638655 Z M13.6184874,14.0302521 L11.907563,19.0285714 L10.2,14.0302521 L13.6184874,14.0302521 L13.6184874,14.0302521 Z M8.17983193,11.6571429 L8.59327731,12.8638655 L7.55462185,12.8638655 L8.17983193,11.6571429 Z M17.692437,13.1966387 C17.6890756,13.189916 17.692437,13.1865546 17.6890756,13.1798319 L16.0521008,9.94957983 L16.0487395,9.93613445 C16.0453782,9.92941176 16.0386555,9.92605042 16.0352941,9.92268908 C15.994958,9.84537815 15.9344538,9.78487395 15.8638655,9.73445378 C15.8403361,9.7210084 15.8201681,9.70756303 15.7966387,9.69411765 C15.7731092,9.68403361 15.7529412,9.66386555 15.7294118,9.65378151 C15.6789916,9.63697479 15.6252101,9.63697479 15.5747899,9.6302521 C15.5613445,9.6302521 15.5512605,9.62016807 15.5378151,9.62016807 L8.2907563,9.62016807 C8.27731092,9.62016807 8.26722689,9.6302521 8.25378151,9.6302521 C8.20336134,9.63361345 8.15294118,9.63361345 8.10252101,9.65042017 C8.0789916,9.6605042 8.05882353,9.67731092 8.03865546,9.6907563 C8.01176471,9.70420168 7.99159664,9.71764706 7.96806723,9.73445378 C7.90420168,9.78151261 7.84705882,9.83865546 7.80672269,9.90588235 C7.8,9.91596639 7.78991597,9.91932773 7.78319328,9.92941176 L6.09243697,13.1731092 C6.08907563,13.1798319 6.09243697,13.1865546 6.08907563,13.1932773 C6.05210084,13.2705882 6.02857143,13.3546218 6.02857143,13.4453782 C6.02857143,13.4521008 6.03193277,13.4621849 6.03193277,13.4689076 C6.03193277,13.4890756 6.04201681,13.5092437 6.04537815,13.5294118 C6.05546218,13.610084 6.08235294,13.6806723 6.12268908,13.7478992 C6.12941176,13.7613445 6.12941176,13.7781513 6.13613445,13.7915966 L11.4504202,21.1495798 L11.4537815,21.1495798 C11.5008403,21.2168067 11.5647059,21.2638655 11.6319328,21.3042017 C11.6487395,21.3142857 11.6655462,21.3210084 11.6823529,21.3277311 C11.7529412,21.3613445 11.8302521,21.3848739 11.9142857,21.3848739 L11.9176471,21.3848739 C11.9983193,21.3848739 12.0756303,21.3613445 12.1462185,21.3277311 C12.1630252,21.3176471 12.1798319,21.3109244 12.1966387,21.3008403 C12.2638655,21.2605042 12.3277311,21.210084 12.3747899,21.1462185 C12.3781513,21.1462185 12.3781513,21.1462185 12.3781513,21.1428571 L17.6453782,13.7848739 C17.6554622,13.7714286 17.6521008,13.7546218 17.6621849,13.7411765 C17.6991597,13.6773109 17.7260504,13.610084 17.7361345,13.5327731 C17.7394958,13.5092437 17.7495798,13.4890756 17.7495798,13.4655462 C17.7495798,13.4554622 17.7563025,13.4487395 17.7563025,13.4386555 C17.7529412,13.3579832 17.7260504,13.2739496 17.692437,13.1966387 L17.692437,13.1966387 Z" id="Documento_Archivo-Sketch_3Masa"></path>
        </g>
    </g>
</svg>

<svg width="24" height="24" viewBox="0 0 24 24" xmlns="http://www.w3.org/2000/svg"><path d="M18.708 6.783l-4.864-4.78v2.118c0 .79.255 1.455.736 1.93.487.477 1.176.732 1.996.732h2.132zm1.983.128a.733.733 0 01.054.286v14.766c0 .9-.763 1.66-1.664 1.66H4.687c-.884 0-1.663-.776-1.663-1.66V1.661C3.024.79 3.817 0 4.687 0h8.76c.276 0 .531.104.726.3l6.256 6.15c.137.132.211.293.262.46zm-5.46 5.953l.408-1.183.598 1.183h-1.005zm-.396 1.166h1.217l-2.33 3.257 1.113-3.257zm-5.845 0l1.13 3.308-2.39-3.308h1.26zm.608-1.768l-.504-1.475h1.657l-1.153 1.475zm4.626.004l-1.174-1.48h1.681l-.507 1.48zm-3.63.598l1.307-1.667 1.32 1.667h-2.628zm3.024 1.166l-1.71 4.999L10.2 14.03h3.418zM8.18 11.657l.413 1.207H7.555l.625-1.207zm9.512 1.54c-.003-.007 0-.01-.003-.017l-1.637-3.23-.003-.014c-.004-.007-.01-.01-.014-.013a.541.541 0 00-.171-.189c-.024-.013-.044-.026-.067-.04-.024-.01-.044-.03-.068-.04-.05-.017-.104-.017-.154-.024-.014 0-.024-.01-.037-.01H8.29c-.014 0-.024.01-.037.01-.05.004-.101.004-.151.02-.024.01-.044.027-.064.04a.603.603 0 00-.232.215c-.007.011-.017.014-.024.024l-1.69 3.244c-.004.007 0 .014-.004.02a.58.58 0 00-.06.252l.003.024c0 .02.01.04.013.06.01.081.037.152.078.219.006.013.006.03.013.044l5.314 7.358h.004a.56.56 0 00.228.178c.07.033.148.057.232.057h.004c.08 0 .158-.024.228-.057.017-.01.034-.017.05-.027a.604.604 0 00.179-.155c.003 0 .003 0 .003-.003l5.267-7.358c.01-.014.007-.03.017-.044a.552.552 0 00.074-.208c.003-.024.014-.044.014-.067 0-.01.006-.017.006-.027a.7.7 0 00-.064-.242z" fill="#5CB615" fill-rule="nonzero"/></svg>
